!!!COM: Anon.
!!!OTL: Os pais de Valdomira
!!!OTL: Romanceiro Folclorico do Brasil
!!!CNT: Brasil
!!!OCY: Brasil
!!!ODT: <1971///
!!!PSR: Irmaos Vitale
!!!PSP: Sao Paulo, Brasil
!!!PDT: 1949///
!!!PPE: Rossini Tavares de Lima
!!!PPG: pages 23-24
!! Romance: Silvaninha
!! Place: Bairro de Santana, Capital, Sao Paulo, Brasil
**kern
*clefG2
*k[b-e-a-]
*M3/4
*MM116
4c
=
8g
8g
8e-
8c
=
4g
8g
8g
=
8a-
16a-
16a-
8cc
8a-
=
4g
8g
16g
16g
=
8cc
8ee-
8dd
8cc
=
8cc
8g
8b-
8a-
=
8g
8f
8e-
8d
=
4c
==
*-
